assets/icons/qvision/beenhere.svg

<svg xmlns="http://www.w3.org/2000/svg" height="24" viewBox="0 0 24 24" width="24"><path d="M0 0h24v24H0z" fill="none"/><path d="M19 1H5c-1.1 0-1.99.9-1.99 2L3 15.93c0 .69.35 1.3.88 1.66L12 23l8.11-5.41c.53-.36.88-.97.88-1.66L21 3c0-1.1-.9-2-2-2zm-9 15l-5-5 1.41-1.41L10 13.17l7.59-7.59L19 7l-9 9z"/></svg>

<svg width="24" height="24" viewBox="0 0 24 24" fill="none" xmlns="http://www.w3.org/2000/svg">
<g clip-path="url(#clip0_147_5107)">
<path d="M19 1H5C3.9 1 3.01 1.9 3.01 3L3 15.93C3 16.62 3.35 17.23 3.88 17.59L12 23L20.11 17.59C20.64 17.23 20.99 16.62 20.99 15.93L21 3C21 1.9 20.1 1 19 1ZM10 16L5 11L6.41 9.59L10 13.17L17.59 5.58L19 7L10 16Z" fill="#323232"/>
</g>
<defs>
<clipPath id="clip0_147_5107">
<rect width="24" height="24" fill="white"/>
</clipPath>
</defs>
</svg>
